public/images/money-manager.svg

<svg width="65" height="65" viewBox="0 0 65 65" fill="none" xmlns="http://www.w3.org/2000/svg">
<path d="M32.5 65C50.4493 65 65 50.4493 65 32.5C65 14.5507 50.4493 0 32.5 0C14.5507 0 0 14.5507 0 32.5C0 50.4493 14.5507 65 32.5 65Z" fill="#E9E9FD"/>
<path d="M46.9404 32.79C41.6304 40.86 40.4804 41.89 40.4804 41.89C39.6204 43.36 37.7004 44.07 36.1804 44.68C31.8004 46.44 27.7704 49.08 26.1804 51.82H16.7704C15.0704 40.57 22.0004 40.57 22.0004 40.57C23.5563 40.3756 25.1225 40.2754 26.6904 40.27C35.5004 40.18 37.5104 37.78 37.5104 37.78C39.6104 35.28 40.0904 34.4 43.8304 29.41C46.1304 26.33 46.8304 27.41 47.6604 27.9C49.9404 29.08 46.9404 32.79 46.9404 32.79Z" fill="#2B237C"/>
<path d="M28.3506 24C26.9661 24 25.6127 24.4105 24.4616 25.1797C23.3105 25.9489 22.4132 27.0421 21.8834 28.3212C21.3536 29.6003 21.215 31.0078 21.4851 32.3656C21.7552 33.7235 22.4219 34.9708 23.4008 35.9497C24.3798 36.9287 25.6271 37.5954 26.985 37.8655C28.3428 38.1356 29.7503 37.997 31.0294 37.4672C32.3085 36.9373 33.4017 36.0401 34.1709 34.889C34.94 33.7378 35.3506 32.3845 35.3506 31C35.3506 29.1435 34.6131 27.363 33.3003 26.0503C31.9876 24.7375 30.2071 24 28.3506 24Z" fill="#2B237C"/>
<path d="M38.65 13.8599C37.4751 13.8599 36.3267 14.2082 35.3499 14.8609C34.3731 15.5136 33.6117 16.4413 33.1621 17.5267C32.7125 18.6121 32.5949 19.8065 32.8241 20.9587C33.0533 22.1109 33.619 23.1694 34.4498 24.0001C35.2805 24.8308 36.3389 25.3965 37.4911 25.6257C38.6434 25.8549 39.8377 25.7373 40.9231 25.2877C42.0085 24.8381 42.9362 24.0768 43.5889 23.1C44.2416 22.1231 44.59 20.9747 44.59 19.7999C44.59 18.2245 43.9641 16.7136 42.8502 15.5996C41.7362 14.4857 40.2254 13.8599 38.65 13.8599Z" fill="#2B237C"/>
<path d="M40.0003 18.4601C40.0207 18.2241 39.9503 17.9893 39.8035 17.8035C39.6567 17.6176 39.4446 17.4948 39.2103 17.4601C38.9053 17.3919 38.5925 17.365 38.2803 17.3801H37.8203V19.3001H39.0003C39.24 19.3031 39.4728 19.22 39.6564 19.0658C39.8399 18.9117 39.962 18.6967 40.0003 18.4601Z" fill="#343537"/>
<path d="M39.8606 20.3799C39.5245 20.1643 39.1294 20.0594 38.7306 20.0799H37.8506V22.2099H38.7606C39.0029 22.2124 39.2447 22.1856 39.4806 22.1299C39.7261 22.0836 39.9454 21.9471 40.0953 21.7472C40.2452 21.5474 40.3149 21.2986 40.2906 21.0499C40.2686 20.9148 40.2191 20.7855 40.1451 20.6703C40.0712 20.555 39.9743 20.4562 39.8606 20.3799V20.3799Z" fill="#343537"/>
<path d="M26.5601 13.1799C25.7314 13.1799 24.9213 13.4257 24.2323 13.8861C23.5432 14.3465 23.0062 15.0009 22.6891 15.7665C22.3719 16.5321 22.289 17.3746 22.4506 18.1874C22.6123 19.0001 23.0114 19.7467 23.5973 20.3327C24.1833 20.9187 24.9299 21.3177 25.7427 21.4794C26.5555 21.6411 27.3979 21.5581 28.1636 21.241C28.9292 20.9239 29.5836 20.3868 30.044 19.6978C30.5044 19.0087 30.7501 18.1986 30.7501 17.3699C30.7501 16.2587 30.3087 15.1929 29.5229 14.4072C28.7371 13.6214 27.6714 13.1799 26.5601 13.1799V13.1799Z" fill="#2B237C"/>
<path d="M39.0501 22.3799V23.3099H38.1501V22.4499C37.6184 22.4288 37.0971 22.2959 36.6201 22.0599L36.8901 20.9999C37.3491 21.2559 37.8646 21.3934 38.3901 21.3999C38.9101 21.3999 39.2701 21.1999 39.2701 20.8399C39.2701 20.4799 38.9701 20.2799 38.2701 20.0599C37.2701 19.7299 36.6401 19.2799 36.6401 18.4099C36.6496 17.9944 36.8155 17.5978 37.1047 17.2993C37.3939 17.0008 37.7851 16.8225 38.2001 16.7999V15.9399H39.0901V16.7399C39.5432 16.7449 39.99 16.8472 40.4001 17.0399L40.1301 18.0399C39.7292 17.8293 39.283 17.7195 38.8301 17.7199C38.2501 17.7199 38.0501 17.9799 38.0501 18.2299C38.0501 18.4799 38.3701 18.7199 39.1501 18.9999C40.2201 19.3799 40.6401 19.8799 40.6401 20.6999C40.636 21.1289 40.4698 21.5405 40.1749 21.8521C39.88 22.1636 39.4782 22.3522 39.0501 22.3799V22.3799Z" fill="#F8F5EC"/>
<path d="M28.9999 34.9098V36.1898H27.7799V34.9998C27.0465 34.9699 26.3276 34.7859 25.6699 34.4598L25.9999 32.9998C26.6303 33.3512 27.3383 33.5402 28.0599 33.5498C28.7799 33.5498 29.2699 33.2698 29.2699 32.7798C29.2699 32.2898 28.9099 31.9998 27.9999 31.7198C26.6699 31.2798 25.7599 30.6498 25.7599 29.4498C25.7755 28.8872 25.9985 28.3502 26.3862 27.9422C26.7739 27.5342 27.2988 27.284 27.8599 27.2398V26.0698H29.0799V27.1598C29.7042 27.1684 30.3202 27.3045 30.8899 27.5598L30.4999 28.9998C29.947 28.7122 29.3332 28.5614 28.7099 28.5598C27.8999 28.5598 27.6399 28.9198 27.6399 29.2698C27.6399 29.6198 28.0799 29.9398 29.1399 30.3198C30.6199 30.8498 31.1999 31.5298 31.1999 32.6598C31.1763 33.2405 30.9384 33.7919 30.5321 34.2074C30.1258 34.623 29.5799 34.8732 28.9999 34.9098V34.9098Z" fill="#F8F5EC"/>
<path d="M26.83 19.4599V20.1599H26.16V19.5199C25.7573 19.5054 25.3621 19.4066 25 19.2299L25.2 18.4399C25.5487 18.624 25.9358 18.7233 26.33 18.7299C26.72 18.7299 26.98 18.5799 26.98 18.3099C26.98 18.0399 26.76 17.8899 26.26 17.7299C25.53 17.4799 25.04 17.1399 25.04 16.4899C25.0486 16.1835 25.1695 15.891 25.3797 15.6679C25.5899 15.4448 25.8747 15.3067 26.18 15.2799V14.6399H26.85V15.2399C27.1955 15.2382 27.5371 15.3133 27.85 15.4599L27.65 16.2199C27.3401 16.0636 26.997 15.9847 26.65 15.9899C26.21 15.9899 26.07 16.1799 26.07 16.3699C26.07 16.5599 26.3 16.7399 26.88 16.9499C27.69 17.2299 28.01 17.5999 28.01 18.2199C28.0033 18.5365 27.8786 18.8392 27.6603 19.0686C27.442 19.298 27.1459 19.4375 26.83 19.4599V19.4599Z" fill="#F8F5EC"/>
</svg>

<svg xmlns="http://www.w3.org/2000/svg" viewBox="0 0 65 65"><defs><style>.cls-1{fill:#f0f5f7;}.cls-2{fill:#2c3e50;}.cls-3{fill:#343537;}.cls-4{fill:#f8f5ec;}</style></defs><title>money-manager</title><g id="Layer_2" data-name="Layer 2"><g id="icons"><circle class="cls-1" cx="32.5" cy="32.5" r="32.5"/><g id="_14" data-name="14"><path class="cls-2" d="M46.94,32.79c-5.31,8.07-6.46,9.1-6.46,9.1-.86,1.47-2.78,2.18-4.3,2.79-4.38,1.76-8.41,4.4-10,7.14H16.77C15.07,40.57,22,40.57,22,40.57a38.89,38.89,0,0,1,4.69-.3c8.81-.09,10.82-2.49,10.82-2.49,2.1-2.5,2.58-3.38,6.32-8.37,2.3-3.08,3-2,3.83-1.51C49.94,29.08,46.94,32.79,46.94,32.79Z"/><path class="cls-2" d="M28.35,24a7,7,0,1,0,7,7A7,7,0,0,0,28.35,24Z"/><path class="cls-2" d="M38.65,13.86a5.94,5.94,0,1,0,5.94,5.94A5.94,5.94,0,0,0,38.65,13.86Z"/><path class="cls-3" d="M40,18.46a.93.93,0,0,0-.79-1,3.49,3.49,0,0,0-.93-.08h-.46V19.3H39A1,1,0,0,0,40,18.46Z"/><path class="cls-3" d="M39.86,20.38a1.91,1.91,0,0,0-1.13-.3h-.88v2.13h.91a3,3,0,0,0,.72-.08,1,1,0,0,0,.81-1.08A1,1,0,0,0,39.86,20.38Z"/><path class="cls-2" d="M26.56,13.18a4.19,4.19,0,1,0,4.19,4.19A4.19,4.19,0,0,0,26.56,13.18Z"/><path class="cls-4" d="M39.05,22.38v.93h-.9v-.86a3.79,3.79,0,0,1-1.53-.39L36.89,21a3.16,3.16,0,0,0,1.5.4c.52,0,.88-.2.88-.56s-.3-.56-1-.78c-1-.33-1.63-.78-1.63-1.65A1.65,1.65,0,0,1,38.2,16.8v-.86h.89v.8a3.16,3.16,0,0,1,1.31.3l-.27,1a2.79,2.79,0,0,0-1.3-.32c-.58,0-.78.26-.78.51s.32.49,1.1.77c1.07.38,1.49.88,1.49,1.7A1.7,1.7,0,0,1,39.05,22.38Z"/><path class="cls-4" d="M29,34.91v1.28H27.78V35a5.23,5.23,0,0,1-2.11-.54L26,33a4.35,4.35,0,0,0,2.06.55c.72,0,1.21-.28,1.21-.77S28.91,32,28,31.72c-1.33-.44-2.24-1.07-2.24-2.27a2.28,2.28,0,0,1,2.1-2.21V26.07h1.22v1.09a4.58,4.58,0,0,1,1.81.4L30.5,29a3.9,3.9,0,0,0-1.79-.44c-.81,0-1.07.36-1.07.71s.44.67,1.5,1.05c1.48.53,2.06,1.21,2.06,2.34A2.35,2.35,0,0,1,29,34.91Z"/><path class="cls-4" d="M26.83,19.46v.7h-.67v-.64A2.88,2.88,0,0,1,25,19.23l.2-.79a2.51,2.51,0,0,0,1.13.29c.39,0,.65-.15.65-.42s-.22-.42-.72-.58c-.73-.25-1.22-.59-1.22-1.24a1.25,1.25,0,0,1,1.14-1.21v-.64h.67v.6a2.33,2.33,0,0,1,1,.22l-.2.76a2.15,2.15,0,0,0-1-.23c-.44,0-.58.19-.58.38s.23.37.81.58c.81.28,1.13.65,1.13,1.27A1.27,1.27,0,0,1,26.83,19.46Z"/></g></g></g></svg>
